fs/immersive_reader_16_regular.svg

<svg viewBox="0 0 16 16" fill="none" xmlns="http://www.w3.org/2000/svg" height="1em" width="1em">
  <path d="M1 3.5C1 2.67157 1.67157 2 2.5 2H6C6.8178 2 7.54389 2.39267 8 2.99976C8.45612 2.39267 9.1822 2 10 2H13.5C14.3284 2 15 2.67157 15 3.5V7.20061C14.6975 7.0262 14.3425 6.96316 14 7.02075V3.5C14 3.22386 13.7761 3 13.5 3H10C9.17157 3 8.5 3.67157 8.5 4.5V8.37875L7.87868 9.00007H7.5V4.5C7.5 3.67157 6.82843 3 6 3H2.5C2.22386 3 2 3.22386 2 3.5V12.5C2 12.7761 2.22386 13 2.5 13H6C6.02836 13 6.05653 12.9992 6.0845 12.9977C6.21658 13.3734 6.49405 13.6807 6.84938 13.852C6.58421 13.9478 6.2982 14 6 14H2.5C1.67157 14 1 13.3284 1 12.5V3.5ZM10.6913 8.03807C10.8782 8.11547 11 8.29778 11 8.50001V14.5C11 14.7022 10.8782 14.8846 10.6913 14.962C10.5045 15.0393 10.2894 14.9966 10.1464 14.8536L8.29289 13H7.5C7.22386 13 7 12.7762 7 12.5V10.5C7 10.2239 7.22386 10 7.5 10H8.29289L10.1464 8.14646C10.2894 8.00346 10.5045 7.96068 10.6913 8.03807ZM14.65 8.20003C14.7712 8.36167 14.9351 8.65306 15.0932 9.07447C15.3482 9.75469 15.5 10.564 15.5 11.5C15.5 12.436 15.3482 13.2454 15.0932 13.9256C14.9351 14.347 14.7712 14.6384 14.65 14.8C14.4843 15.0209 14.1709 15.0657 13.95 14.9C13.7536 14.7528 13.6964 14.4888 13.8025 14.2768L13.9182 14.0948C13.9838 13.9827 14.0688 13.8092 14.1568 13.5745C14.3705 13.0047 14.5 12.314 14.5 11.5C14.5 10.686 14.3705 9.99537 14.1568 9.42559C14.0688 9.19089 13.9838 9.01739 13.9182 8.90521L13.85 8.80003C13.6843 8.57912 13.7291 8.26571 13.95 8.10003C14.1709 7.93434 14.4843 7.97912 14.65 8.20003ZM12.9472 9.27642C13.0196 9.42114 13.1224 9.661 13.2243 9.96692C13.3962 10.4825 13.5 11.0015 13.5 11.5C13.5 11.9986 13.3962 12.5176 13.2243 13.0331C13.1224 13.3391 13.0196 13.5789 12.9472 13.7236C12.8237 13.9706 12.5234 14.0707 12.2764 13.9472C12.0294 13.8237 11.9293 13.5234 12.0528 13.2764L12.1293 13.1079C12.1733 13.0036 12.2243 12.8709 12.2756 12.7169C12.4163 12.295 12.5 11.8765 12.5 11.5C12.5 11.1236 12.4163 10.7051 12.2756 10.2831C12.1901 10.0266 12.1054 9.82892 12.0528 9.72364C11.9293 9.47665 12.0294 9.17631 12.2764 9.05282C12.5234 8.92932 12.8237 9.02943 12.9472 9.27642Z" fill="#212121"/>
</svg>

<svg viewBox="0 0 16 16" fill="none" xmlns="http://www.w3.org/2000/svg" height="1em" width="1em">
  <path d="M1 3.5A1.5 1.5 0 0 1 2.5 2H6c.818 0 1.544.393 2 1 .456-.607 1.182-1 2-1h3.5A1.5 1.5 0 0 1 15 3.5v3.7a1.506 1.506 0 0 0-1-.18V3.5a.5.5 0 0 0-.5-.5H10a1.5 1.5 0 0 0-1.5 1.5v3.879L7.879 9H7.5V4.5A1.5 1.5 0 0 0 6 3H2.5a.5.5 0 0 0-.5.5v9a.5.5 0 0 0 .5.5H6c.028 0 .057 0 .085-.002.132.375.409.683.764.854A2.495 2.495 0 0 1 6 14H2.5A1.5 1.5 0 0 1 1 12.5v-9Zm9.691 4.538A.5.5 0 0 1 11 8.5v6a.5.5 0 0 1-.854.354L8.293 13H7.5a.5.5 0 0 1-.5-.5v-2a.5.5 0 0 1 .5-.5h.793l1.853-1.854a.5.5 0 0 1 .545-.108Zm3.959.162c.121.162.285.453.443.874.255.68.407 1.49.407 2.426 0 .936-.152 1.745-.407 2.426-.158.421-.322.712-.443.874a.5.5 0 0 1-.848-.523l.116-.182a3.47 3.47 0 0 0 .239-.52c.213-.57.343-1.261.343-2.075 0-.814-.13-1.505-.343-2.074a3.475 3.475 0 0 0-.239-.52L13.85 8.8a.5.5 0 1 1 .8-.6Zm-1.703 1.076c.073.145.175.385.277.69.172.517.276 1.036.276 1.534 0 .499-.104 1.018-.276 1.533a5.502 5.502 0 0 1-.277.69.5.5 0 1 1-.894-.447l.076-.168a5.45 5.45 0 0 0 .147-.391c.14-.422.224-.84.224-1.217 0-.376-.084-.795-.224-1.217a4.595 4.595 0 0 0-.223-.56.5.5 0 1 1 .894-.447Z" fill="#212121"/>
</svg>
